X: 30952
T: Owen's
R: jig
M: 6/8
K: Gmajor
d/c/|B2 G Bcd|e2 c cde|dBG dBG|F2 A A2 d/c/|
B2 G Bcd|e2 c cde|dcG cAF|1 AGF G2:|2 AGF G2 z||
|:B2 d gdB|c2 e gec|B2 d gdB|Ade fed|
B2 d gdB|c2 e gec|BdB cAF|1 AGF G2:|2 AGF G3||

